!!!!SEGMENT: Snf0249-Sancta_Maria_Virgo_intercede_I.krn
!!!id: Snf0249
!!!AGN: Motet
!!!SCT: Edwards, Gasch, Tröster (2022)
!!!voices: 4
!!!COM: Ludwig Senfl
!!!OTL: Sancta Maria Virgo, intercede
**kern	**text	**kern	**text	**kern	**text	**kern	**text
*part4	*part4	*part3	*part3	*part2	*part2	*part1	*part1
*staff4	*staff4	*staff3	*staff3	*staff2	*staff2	*staff1	*staff1
*I"Bassus	*	*I"Tenor	*	*I"Altus	*	*I"Superius	*
*I'B	*	*I'T	*	*I'A	*	*I'S	*
*clefF4	*	*clefGv2	*	*clefGv2	*	*clefG2	*
*k[b-]	*	*k[b-]	*	*k[b-]	*	*k[b-]	*
*F:	*	*F:	*	*F:	*	*F:	*
*M2/1	*	*M2/1	*	*M2/1	*	*M2/1	*
*met(C|)	*	*met(C|)	*	*met(C|)	*	*met(C|)	*
!!section: Prima pars: Sancta Maria Virgo, intercede
!!!OMD: Prima pars: Sancta Maria Virgo, intercede
=1	=1	=1	=1	=1	=1	=1	=1
0r	.	0r	.	1c	San-	0r	.
.	.	.	.	1d	.	.	.
=2	=2	=2	=2	=2	=2	=2	=2
0r	.	0r	.	1f	-cta	1cc	San-
.	.	.	.	1r	.	1dd	.
=3	=3	=3	=3	=3	=3	=3	=3
0r	.	0r	.	2r	.	1ff	-cta
.	.	.	.	2f	Ma-	.	.
.	.	.	.	2.f	-ri-	2r	.
.	.	.	.	.	.	2ff	Ma-
.	.	.	.	4e	.	.	.
=4	=4	=4	=4	=4	=4	=4	=4
0r	.	0r	.	1d	-a,	1ff	-ri-
.	.	.	.	1c	.	1ee	.
=5	=5	=5	=5	=5	=5	=5	=5
0r	.	0r	.	2r	.	1dd	-a
.	.	.	.	2d	san-	.	.
.	.	.	.	2e	.	2cc	.
.	.	.	.	2f	.	[2dd	Vir-
=6	=6	=6	=6	=6	=6	=6	=6
0r	.	0r	.	2g	.	2dd]	.
.	.	.	.	2c	.	1cc	.
.	.	.	.	1d	-cta	.	.
.	.	.	.	.	.	2bnXi	.
=7	=7	=7	=7	=7	=7	=7	=7
0C	San-	0r	.	2r	.	1cc	-go,
.	.	.	.	2c	Ma-	.	.
.	.	.	.	2.c	-ri-	2r	.
.	.	.	.	.	.	2cc	san-
.	.	.	.	8dL	.	.	.
.	.	.	.	8eJ	.	.	.
=8	=8	=8	=8	=8	=8	=8	=8
0D	.	0r	.	2f	.	2b-y	.
.	.	.	.	1d	-a,	2a	.
.	.	.	.	.	.	1dd	-cta
.	.	.	.	4c	.	.	.
.	.	.	.	4B-y	.	.	.
=9	=9	=9	=9	=9	=9	=9	=9
0F	-cta	0c	San-	0A	.	2r	.
.	.	.	.	.	.	2cc	Ma-
.	.	.	.	.	.	2.cc	-ri-
.	.	.	.	.	.	8ddL	.
.	.	.	.	.	.	8eeJ	.
=10	=10	=10	=10	=10	=10	=10	=10
0r	.	0d	.	2r	.	2ff	.
.	.	.	.	1B-y	san-	1dd	-a,
.	.	.	.	4A	.	4cc	.
.	.	.	.	4G	.	4b-y	.
=11	=11	=11	=11	=11	=11	=11	=11
1r	.	[0f	-cta	2d	.	2a	.
.	.	.	.	2.A	-cta	2cc	Ma-
1F	Ma-	.	.	.	.	2.cc	-ri-
.	.	.	.	4G	.	.	.
.	.	.	.	4A	.	.	.
.	.	.	.	4B-y	.	4b-y	.
=12	=12	=12	=12	=12	=12	=12	=12
0F	-ri-	0f]	.	2c	.	2a	.
.	.	.	.	1d	Ma-	2g	.
.	.	.	.	.	.	1a	.
.	.	.	.	[2c	.	.	.
=13	=13	=13	=13	=13	=13	=13	=13
0E	.	0r	.	2c]	.	1g	-a
.	.	.	.	4B-y	.	.	.
.	.	.	.	4A	.	.	.
.	.	.	.	2.G	-ri-	2r	.
.	.	.	.	.	.	2cc	Vir-
.	.	.	.	4A	.	.	.
=14	=14	=14	=14	=14	=14	=14	=14
0D	-a	0r	.	4B-y	.	2dd	.
.	.	.	.	4A	.	.	.
.	.	.	.	1c	.	2ee	.
.	.	.	.	.	.	[1ff	.
.	.	.	.	2BnXi	.	.	.
=15	=15	=15	=15	=15	=15	=15	=15
0C	.	0r	.	1c	-a,	2ff]	.
.	.	.	.	.	.	4ee	.
.	.	.	.	.	.	4dd	.
.	.	.	.	2r	.	4ee	.
.	.	.	.	.	.	4dd	.
.	.	.	.	2e	san-	4cc	.
.	.	.	.	.	.	4b-y	.
=16	=16	=16	=16	=16	=16	=16	=16
[0D	Vir-	1r	.	4f	-cta	2a	.
.	.	.	.	4e	.	.	.
.	.	.	.	4d	.	1b-y	.
.	.	.	.	4c	.	.	.
.	.	1f	Ma-	4B-y	.	.	.
.	.	.	.	4A	.	.	.
.	.	.	.	[2d	.	4a	.
.	.	.	.	.	.	4g	.
=17	=17	=17	=17	=17	=17	=17	=17
0D]	.	0f	-ri-	2d]	.	1a	.
.	.	.	.	1c	Ma-	.	.
.	.	.	.	.	.	1dd	.
.	.	.	.	2B-y	-ri-	.	.
=18	=18	=18	=18	=18	=18	=18	=18
0C	-go,	0e	.	4c	-a	1g	-go,
.	.	.	.	4d	.	.	.
.	.	.	.	4e	.	.	.
.	.	.	.	4f	.	.	.
.	.	.	.	2g	.	2r	.
.	.	.	.	2e	Vir-	2cc	Vir-
=19	=19	=19	=19	=19	=19	=19	=19
0r	.	0d	-a	2f	.	2.dd	.
.	.	.	.	2.b-y	.	.	.
.	.	.	.	.	.	4cc	.
.	.	.	.	.	.	4dd	.
.	.	.	.	4a	.	4ee	.
.	.	.	.	4g	.	[2ff	.
.	.	.	.	4f	.	.	.
=20	=20	=20	=20	=20	=20	=20	=20
1r	.	0c	.	1g	.	2ff]	.
.	.	.	.	.	.	2ee	.
[1F	in-	.	.	[1f	-go,	2ff	-go,
.	.	.	.	.	.	[2f	in-
=21	=21	=21	=21	=21	=21	=21	=21
1F]	.	0d	Vir-	1f]	.	4f]	.
.	.	.	.	.	.	4g	.
.	.	.	.	.	.	4a	.
.	.	.	.	.	.	4b-y	.
1F	-ter-	.	.	2r	.	2a	.
.	.	.	.	[2f	in-	2f	.
=22	=22	=22	=22	=22	=22	=22	=22
0F	-ce-	0c	-go,	2f]	.	2.a	-ter-
.	.	.	.	2f	-ter-	.	.
.	.	.	.	.	.	4b-y	.
.	.	.	.	2.f	-ce-	2cc	.
.	.	.	.	.	.	2f	-ce-
.	.	.	.	8eL	.	.	.
.	.	.	.	8dJ	.	.	.
=23	=23	=23	=23	=23	=23	=23	=23
0E	.	0r	.	2c	.	2.g	.
.	.	.	.	1d	.	.	.
.	.	.	.	.	.	4a	.
.	.	.	.	.	.	2b-y	.
.	.	.	.	2c	.	4a	.
.	.	.	.	.	.	4g	.
=24	=24	=24	=24	=24	=24	=24	=24
0D	-de,	0r	.	2d	-de,	2f	.
.	.	.	.	4c	.	1g	.
.	.	.	.	4B-y	.	.	.
.	.	.	.	1A	.	.	.
.	.	.	.	.	.	2f#i	.
=25	=25	=25	=25	=25	=25	=25	=25
[0C	.	1r	.	2r	.	0g	-de,
.	.	.	.	1e	in-	.	.
.	.	[1c	in-	.	.	.	.
.	.	.	.	2c	-ter-	.	.
=26	=26	=26	=26	=26	=26	=26	=26
0C]	.	1c]	.	2.e	-ce-	2r	.
.	.	.	.	.	.	2cc	in-
.	.	.	.	4f	.	.	.
.	.	1c	-ter-	4g	.	2.ee	-ter-
.	.	.	.	4a	.	.	.
.	.	.	.	[2g	.	.	.
.	.	.	.	.	.	4ff	.
=27	=27	=27	=27	=27	=27	=27	=27
0r	.	0c	-ce-	4g]	.	2gg	.
.	.	.	.	4f	.	.	.
.	.	.	.	4e	.	2.cc	-ce-
.	.	.	.	4d	.	.	.
.	.	.	.	1e	.	.	.
.	.	.	.	.	.	4dd	.
.	.	.	.	.	.	2ee	.
=28	=28	=28	=28	=28	=28	=28	=28
0r	.	0B-y	.	2d	.	4ff	-de,
.	.	.	.	.	.	4ee	.
.	.	.	.	1f	-de,	4dd	.
.	.	.	.	.	.	4cc	.
.	.	.	.	.	.	1dd	.
.	.	.	.	4e	.	.	.
.	.	.	.	4d	.	.	.
=29	=29	=29	=29	=29	=29	=29	=29
1r	.	0A	-de	1c	.	1.ee	in-
[1C	in-	.	.	2r	.	.	.
.	.	.	.	[2c	in-	2cc	.
=30	=30	=30	=30	=30	=30	=30	=30
1C]	.	0G	.	4c]	.	2.cc	-ter-
.	.	.	.	4B-y	.	.	.
.	.	.	.	4c	.	.	.
.	.	.	.	4d	.	4b-y	.
1C	-ter-	.	.	2.e	.	4cc	.
.	.	.	.	.	.	4dd	.
.	.	.	.	.	.	[2ee	.
.	.	.	.	4f	.	.	.
=31	=31	=31	=31	=31	=31	=31	=31
0C	-ce-	0r	.	2g	.	4ee]	.
.	.	.	.	.	.	4ff	.
.	.	.	.	2.G	-ter-	2gg	.
.	.	.	.	.	.	2.g	-ce-
.	.	.	.	4F	.	.	.
.	.	.	.	4G	.	.	.
.	.	.	.	4A	.	4f	.
=32	=32	=32	=32	=32	=32	=32	=32
0BB-y	.	0r	.	2.B-y	.	4g	.
.	.	.	.	.	.	4a	.
.	.	.	.	.	.	2.b-y	.
.	.	.	.	4c	.	.	.
.	.	.	.	2d	.	.	.
.	.	.	.	.	.	4cc	.
.	.	.	.	[2G	-ce-	[2dd	.
=33	=33	=33	=33	=33	=33	=33	=33
0AA	-de	1r	.	2G]	.	4dd]	.
.	.	.	.	.	.	4cc	.
.	.	.	.	4F	.	2cc	-de
.	.	.	.	4E	.	.	.
.	.	1c	pro	2F	.	2r	.
.	.	.	.	4G	.	[2cc	pro
.	.	.	.	4A	.	.	.
=34	=34	=34	=34	=34	=34	=34	=34
0GG	.	0d	to-	4B-y	.	2cc]	.
.	.	.	.	4A	.	.	.
.	.	.	.	4G	.	4b-y	.
.	.	.	.	4F	.	4a	.
.	.	.	.	1G	.	1b-y	.
=35	=35	=35	=35	=35	=35	=35	=35
1r	.	1f	-to	1d	-de	2.a	to-
.	.	.	.	.	.	4b-y	.
1C	pro	1e	.	2r	.	4cc	.
.	.	.	.	.	.	4b-y	.
.	.	.	.	2c	pro	4a	.
.	.	.	.	.	.	4g	.
=36	=36	=36	=36	=36	=36	=36	=36
0D	to-	1d	mun-	2A	to-	1f	-to,
.	.	.	.	1B-y	.	.	.
.	.	1f	.	.	.	1r	.
.	.	.	.	4A	.	.	.
.	.	.	.	4G	.	.	.
=37	=37	=37	=37	=37	=37	=37	=37
1F	-to	0c	-do,	2A	.	2r	.
.	.	.	.	2F	.	2.cc	pro
1E	.	.	.	1G	-to	.	.
.	.	.	.	.	.	4dd	.
.	.	.	.	.	.	2ee	.
=38	=38	=38	=38	=38	=38	=38	=38
1D	mun-	0r	.	2r	.	2ff	to-
.	.	.	.	1A	mun-	2f	-to
1F	.	.	.	.	.	2.a	mun-
.	.	.	.	[2c	.	.	.
.	.	.	.	.	.	4b-y	.
=39	=39	=39	=39	=39	=39	=39	=39
0C	-do,	1r	.	2c]	.	1cc	.
.	.	.	.	1G	-do,	.	.
.	.	1c	qui-	.	.	2g	-do,
.	.	.	.	[2A	mun-	2cc	qui-
=40	=40	=40	=40	=40	=40	=40	=40
1r	.	0c	-a	2A]	.	1cc	-a,
.	.	.	.	1c	.	.	.
1C	qui-	.	.	.	.	1g	.
.	.	.	.	[2G	-do,	.	.
=41	=41	=41	=41	=41	=41	=41	=41
0C	-a	[0G	.	2G]	.	1r	.
.	.	.	.	1e	mun-	.	.
.	.	.	.	.	.	2r	.
.	.	.	.	[2g	.	2gg	[qui-
=42	=42	=42	=42	=42	=42	=42	=42
0GG	.	0G_	.	2g]	.	1gg	-a,]
.	.	.	.	2d	-do,	.	.
.	.	.	.	2r	.	1dd	.
.	.	.	.	2d	qui-	.	.
=43	=43	=43	=43	=43	=43	=43	=43
0C	ge-	0G]	.	4e	.	2r	.
.	.	.	.	4d	.	.	.
.	.	.	.	2g	.	2cc	qui-
.	.	.	.	1g	-a	2cc	-a,
.	.	.	.	.	.	2g	.
=44	=44	=44	=44	=44	=44	=44	=44
1D	-nu-	0r	.	2d	ge-	1r	.
.	.	.	.	1f	.	.	.
[1F	-i-	.	.	.	.	2r	.
.	.	.	.	4e	.	2cc	[qui-
.	.	.	.	4d	.	.	.
=45	=45	=45	=45	=45	=45	=45	=45
1F]	.	0r	.	2.c	.	1cc	-a]
.	.	.	.	4d	.	.	.
1E	-sti	.	.	4e	.	1g	.
.	.	.	.	4d	.	.	.
.	.	.	.	4c	.	.	.
.	.	.	.	4B-y	.	.	.
=46	=46	=46	=46	=46	=46	=46	=46
0F	Re-	0c	ge-	2A	.	2r	.
.	.	.	.	2F	-nu-	2.cc	ge-
.	.	.	.	[1c	-i-	.	.
.	.	.	.	.	.	4b-y	.
.	.	.	.	.	.	4a	.
.	.	.	.	.	.	4g	.
=47	=47	=47	=47	=47	=47	=47	=47
1D	-gem	1d	-nu-	2c]	.	1.f	.
.	.	.	.	4B-y	.	.	.
.	.	.	.	4A	.	.	.
1D	or-	[1f	-i-	1B-y	-sti	.	.
.	.	.	.	.	.	2b-y	-nu-
=48	=48	=48	=48	=48	=48	=48	=48
0C	-bis,	1f]	.	0c	Re-	2a	-i-
.	.	.	.	.	.	4g	.
.	.	.	.	.	.	4f	.
.	.	1e	-sti	.	.	1g	.
=49	=49	=49	=49	=49	=49	=49	=49
0r	.	0f	Re-	1A	-gem	4f	-sti
.	.	.	.	.	.	4g	.
.	.	.	.	.	.	4a	.
.	.	.	.	.	.	4b-y	.
.	.	.	.	1A	or-	4cc	.
.	.	.	.	.	.	4dd	.
.	.	.	.	.	.	[2cc	Re-
=50	=50	=50	=50	=50	=50	=50	=50
0r	.	1d	-gem	[0G	-bis,	2cc]	.
.	.	.	.	.	.	4bnXi	.
.	.	.	.	.	.	4a	.
.	.	1d	or-	.	.	1bni	.
=51	=51	=51	=51	=51	=51	=51	=51
0C	ge-	0c	-bis,	0G]	.	1cc	-gem,
.	.	.	.	.	.	2r	.
.	.	.	.	.	.	2cc	ge-
=52	=52	=52	=52	=52	=52	=52	=52
1D	-nu-	0r	.	0r	.	2a	-nu-
.	.	.	.	.	.	2.dd	.
[1F	-i-	.	.	.	.	.	.
.	.	.	.	.	.	4cc	.
.	.	.	.	.	.	[2cc	-i-
=53	=53	=53	=53	=53	=53	=53	=53
1F]	.	0G	ge-	0r	.	2cc]	.
.	.	.	.	.	.	4b-y	.
.	.	.	.	.	.	4a	.
1E	-sti	.	.	.	.	2g	.
.	.	.	.	.	.	2cc	.
=54	=54	=54	=54	=54	=54	=54	=54
0F	Re-	1A	-nu-	0c	Re-	2a	.
.	.	.	.	.	.	2.cc	-sti
.	.	[1c	-i-	.	.	.	.
.	.	.	.	.	.	4b-y	.
.	.	.	.	.	.	4a	.
.	.	.	.	.	.	4g	.
=55	=55	=55	=55	=55	=55	=55	=55
1D	-gem	1c]	.	1d	-gem	1f	.
1D	or-	1BnXi	-sti	[1f	or-	1r	.
=56	=56	=56	=56	=56	=56	=56	=56
0C	-bis.	0c	Re-	1f]	.	2r	.
.	.	.	.	.	.	2.cc	Re-
.	.	.	.	1e	-bis,	.	.
.	.	.	.	.	.	4dd	.
.	.	.	.	.	.	2ee	.
=57	=57	=57	=57	=57	=57	=57	=57
0r	.	1A	-gem	0f	Re-	2cc	-gem
.	.	.	.	.	.	2.ff	or-
.	.	1A	or-	.	.	.	.
.	.	.	.	.	.	4ee	.
.	.	.	.	.	.	4dd	.
.	.	.	.	.	.	4cc	.
=58	=58	=58	=58	=58	=58	=58	=58
0r	.	[0Gl	-bis.	1d	-gem	2bnXi	.
.	.	.	.	.	.	1cc	.
.	.	.	.	1d	or-	.	.
.	.	.	.	.	.	2bni	.
=59	=59	=59	=59	=59	=59	=59	=59
00Cl	-bis.-	00G]	.	00cl	-bis.	00ccl	-bis.
==	==	==	==	==	==	==	==
*-	*-	*-	*-	*-	*-	*-	*-
!!!system-decoration: [*]
!!!RDF**kern: i = editorial accidental
!!!RDF**kern: l = terminal long
!!!PTL: <i> New Senfl Edition: Motets for Four Voices (N-V) </i>
!!!PPR: Hollitzer Verlag
!!!PC#: Denkmäler der Tonkunst in Österreich 163.2
!!!PDT: 2022
!!!PED: Scott Lee Edwards, Stefan Gasch, and Sonja Tröster
!!!YEC: Copyright 2022 Denkmäler der Tonkunst in Österreich
!!!YEM: CC-BY-NC 4.0 (https://creativecommons.org/licenses/by-nc/4.0/legalcode)
!!!EED: Benjamin Ory
!!!EEV: 2024/2/2
!!!verovio: header true
!!!header-left: @{PTL}\n@{PED}, eds.\n@{PC#} (@{PDT})&nbsp;\n
!!!header-right:
!!!header-center:
